X:99015
T:The Isle
P:Bonnie Dundee
C:Traditional
R:Jig (8x32)
B:RSCDS Gr-15
Z:Anselm Lingnau <anselm@strathspey.org>
M:6/8
L:1/8
K:G
|:A/B/|"F"c>dc cdc|"Bb"fed "F"c2B|AcC AcC|"C7"G>GG G2A/B/|
       "F"cdc cdc|"Bb"fed "F"c2 c/B/|A<cC "C7"G<cC|"F"F<FF F2:|
|:C|"F"F>FF FBA|"C"GCC C2C|GGG GAB|"F"BAA A2F|
    [AF]>G[AF] "C7"[BE]>A[BE]|"F"[cF]>B[cF] "Bb"[d2F2] c/B/|\
          "F"AcC "C7"G<cC|"F"F<FF F2:|
